svg_80x80/css.svg

<svg viewBox="0 0 80 80" xmlns="http://www.w3.org/2000/svg">
<rect width="100%" height="100%" fill="white"/>
<path d="M69.9795 7L64.5225 68.1915L39.966 75L15.4775 68.2L10.0205 7H69.9795Z" fill="#264DE4"/>
<path d="M59.8475 64.2985L64.514 12.0065H40V69.798L59.8475 64.2985Z" fill="#2965F1"/>
<path d="M22.5324 34.7015L23.2039 42.207H39.9999V34.7015H22.5324ZM39.9999 19.512H21.1809L21.8609 27.0175H39.9999V19.512ZM39.9999 62.0035V54.2005L39.9659 54.209L31.6104 51.948L31.0749 45.964H23.5439L24.5894 57.745L39.9659 62.0205L39.9999 62.0035Z" fill="#EBEBEB"/>
<path d="M49.2226 42.207L48.3471 51.948L39.9746 54.2005V62.012L55.3681 57.745L55.4786 56.4785L57.2381 36.716L57.4251 34.7015L58.7766 19.512H39.9746V27.0175H50.5571L49.8686 34.7015H39.9746V42.207H49.2226Z" fill="white"/>
</svg>

<svg xmlns="http://www.w3.org/2000/svg" viewBox="0 0 80 80">
  <rect width="100%" height="100%" fill="#fff"/>
  <path fill="#264DE4" d="m70 7-5.5 61.2L40 75l-24.5-6.8L10 7h60Z"/>
  <path fill="#2965F1" d="M59.8 64.3 64.5 12H40v57.8l19.8-5.5Z"/>
  <path fill="#EBEBEB" d="m22.5 34.7.7 7.5H40v-7.5H22.5ZM40 19.5H21.2l.7 7.5H40v-7.5ZM40 62v-7.8L31.6 52l-.5-6h-7.6l1 11.8L40 62Z"/>
  <path fill="#fff" d="m49.2 42.2-.9 9.7-8.3 2.3V62l15.4-4.3v-1.2l1.8-19.8.2-2 1.4-15.2H40V27h10.6l-.7 7.7h-10v7.5h9.3Z"/>
</svg>
